svg/landslide.svg

<svg xmlns="http://www.w3.org/2000/svg" viewBox="0 0 24 24"><path d="m15.47 13.79-2.58-1.03L6 15.05 2 13.5v2.11l4 1.34zm-4.9-2.37L8 8H2v3.61l4 1.34zM6 19.05l-4-1.33V22h20l-4.97-6.62zM17 6V1l-5-1-3 2v4l3 2zm1.5 1L16 9v3l2.5 2 4.5-2V8z"/></svg>

<svg xmlns="http://www.w3.org/2000/svg" id="mdi-landslide" viewBox="0 0 24 24"><path d="M15.47 13.79L12.89 12.76L6 15.05L2 13.5V15.61L6 16.95L15.47 13.79M10.57 11.42L8 8H2V11.61L6 12.95L10.57 11.42M6 19.05L2 17.72V22H22L17.03 15.38L6 19.05M17 6V1L12 0L9 2V6L12 8L17 6M18.5 7L16 9V12L18.5 14L23 12V8L18.5 7Z" /></svg>
